static/logos/optimizely-glyph-color.svg

<svg width="50" height="49" viewBox="0 0 50 49" fill="none" xmlns="http://www.w3.org/2000/svg">
<g clip-path="url(#clip0_1_1778)">
<path d="M16.4531 26.2251V31.9751C20.8404 31.97 25.0466 30.2783 28.1489 27.2712C31.2512 24.264 32.9963 20.1869 33.0017 15.9342H27.0697C27.0662 18.6624 25.9465 21.2781 23.9563 23.2072C21.9661 25.1364 19.2677 26.2217 16.4531 26.2251Z" fill="#3BE081"/>
<path d="M16.4546 42.064C13.6603 42.064 10.9804 40.9879 9.00451 39.0727C7.02862 37.1574 5.91858 34.5597 5.91858 31.8512C5.91858 29.1424 7.02862 26.5449 9.00451 24.6295C10.9804 22.7142 13.6603 21.6382 16.4546 21.6382V15.9305C14.2968 15.9276 12.1596 16.3365 10.1649 17.1342C8.17022 17.9318 6.35713 19.1026 4.82918 20.5794C3.30123 22.0562 2.08833 23.8104 1.25974 25.7415C0.431155 27.6728 0.0030993 29.7433 1.6768e-05 31.8349C-0.00306576 33.9264 0.418886 35.9981 1.24178 37.9317C2.06468 39.8651 3.2724 41.6226 4.79599 43.1037C6.31958 44.5847 8.12921 45.7605 10.1215 46.5636C12.1139 47.3668 14.2499 47.7818 16.4077 47.7847H16.4546V42.064Z" fill="#0037FF"/>
<path d="M16.4531 42.0641V47.7718C20.8109 47.7718 24.9903 46.0938 28.0717 43.1069C31.1531 40.12 32.8843 36.0688 32.8843 31.8447H26.9893C26.9875 34.5533 25.8771 37.1508 23.9017 39.0667C21.9265 40.9826 19.2476 42.0606 16.4531 42.0641Z" fill="#00CCFF"/>
<path d="M16.4531 10.2194V15.9271C20.8109 15.9271 24.9903 14.2491 28.0717 11.2622C31.1531 8.27526 32.8843 4.22413 32.8843 0H26.9893C26.9875 2.70869 25.8771 5.30604 23.9017 7.22197C21.9265 9.13792 19.2476 10.2159 16.4531 10.2194Z" fill="#861DFF"/>
<path d="M32.9844 10.2194V15.9271C37.3422 15.9271 41.5214 14.2491 44.6028 11.2622C47.6844 8.27526 49.4154 4.22413 49.4154 0H43.5237C43.5219 2.70924 42.411 5.30709 40.435 7.22313C38.459 9.13915 35.7794 10.2168 32.9844 10.2194Z" fill="#FF8110"/>
</g>
<defs>
<clipPath id="clip0_1_1778">
<rect width="50" height="48.7179" fill="white"/>
</clipPath>
</defs>
</svg>

<svg xmlns="http://www.w3.org/2000/svg" width="65.306" height="64" fill="none" viewBox="0 0 50 49"><g clip-path="url(#a)"><path fill="#3BE081" d="M16.453 26.225v5.75c4.387-.005 8.594-1.697 11.696-4.704 3.102-3.007 4.847-7.084 4.853-11.337H27.07c-.004 2.728-1.123 5.344-3.114 7.273-1.99 1.93-4.688 3.015-7.503 3.018Z"/><path fill="#0037FF" d="M16.455 42.064c-2.795 0-5.475-1.076-7.45-2.991-1.976-1.916-3.086-4.513-3.086-7.222 0-2.709 1.11-5.306 3.086-7.221 1.975-1.916 4.655-2.992 7.45-2.992V15.93a16.885 16.885 0 0 0-6.29 1.204 16.477 16.477 0 0 0-5.336 3.445 15.906 15.906 0 0 0-3.57 5.162A15.506 15.506 0 0 0 0 31.835a15.504 15.504 0 0 0 1.242 6.097 15.903 15.903 0 0 0 3.554 5.172 16.474 16.474 0 0 0 5.325 3.46 16.88 16.88 0 0 0 6.287 1.22h.047v-5.72Z"/><path fill="#0CF" d="M16.453 42.064v5.708c4.358 0 8.537-1.678 11.619-4.665 3.081-2.987 4.812-7.038 4.812-11.262H26.99c-.002 2.708-1.112 5.306-3.087 7.222-1.976 1.916-4.654 2.994-7.449 2.997Z"/><path fill="#861DFF" d="M16.453 10.22v5.707c4.358 0 8.537-1.678 11.619-4.665C31.153 8.275 32.884 4.224 32.884 0H26.99c-.002 2.709-1.112 5.306-3.087 7.222-1.976 1.916-4.654 2.994-7.449 2.997Z"/><path fill="#FF8110" d="M32.984 10.22v5.707c4.358 0 8.537-1.678 11.619-4.665C47.684 8.275 49.415 4.224 49.415 0h-5.891c-.002 2.71-1.113 5.307-3.089 7.223-1.976 1.916-4.656 2.994-7.45 2.996Z"/></g><defs><clipPath id="a"><path fill="#fff" d="M0 0h50v48.718H0z"/></clipPath></defs></svg>
